X: 1
T:The Lilting Banshee (Ballinasloe Fair)
M:6/8
L:1/8
Q:80
C:arr. Kent Hiestand
S:Jig
K:HP
|: {g}GA{d}AGA{d}A|
{d}BAB{d}G2A|
{g}Be{A}e{g}edB|  !
{g}def{a}gfg|
{g}eA{d}A{g}eA{d}A|
{d}BAB{d}G2A|  !
{g}Be{A}e{g}edB|
{g}BAG{g}A3:| |:
{g}ea{g}a{g}age|  !
{g}dBA{d}G2A|
{g}Be{A}e{g}edB|
{g}def{a}gfg|  !
{g}ea{g}a{g}age|
{g}dBA{d}G2A|
{g}Be{A}e{g}edB|  !
{g}BAG{d}A3:|
